X: 102
T: Doublings
B: C. & S. Thompson, "The Compleat Tutor for the Fife" c.1760 p.10 #2
S: http://imslp.org/wiki/The_Compleat_Tutor_for_the_Fife_(Anonymous)
Z: 2014 John Chambers <jc:trillian.mit.edu>
N: Length of last note corrected.
M: 6/8
L: 1/8
K: G
% - - - - - - - - - - - - - - - - - - - - - - - - -
B/c/ |\
dBg ded | cAa cdc | BGB cAc | BGB A2 (G//A//B//c//) |\
dBe Te3 | cAd Td3 | BGB cAc | BGF G2 :|
% - - - - - - - - - - - - - - - - - - - - - - - - -
